rospo-icon-theme-classic-common/64x64/apps/green-recorder.svg

<svg height="64" width="64" xmlns="http://www.w3.org/2000/svg"><path d="m16.000323 51.376036v1.999984c0 1.453989 1.190591 2.62398 2.66798 2.62398h26.663794c1.477989 0 2.66798-1.169991 2.66798-2.62398v-1.999984c0 1.453988-1.189991 2.623979-2.66798 2.623979h-26.663794c-1.477389 0-2.66798-1.169991-2.66798-2.623979z" opacity=".2"/><rect fill="#8e8e8e" height="32" rx="2.626" ry="2.666" transform="matrix(0 -1 -1 0 0 0)" width="42" x="-55" y="-48"/><path d="m6.0004002 45.500081v1.999984c0 1.38399 1.1611911 2.499981 2.60158 2.499981h46.7956398c1.439989 0 2.60198-1.115991 2.60198-2.499981v-1.999984c0 1.383989-1.161991 2.499981-2.60198 2.499981h-46.7956398c-1.4407889 0-2.60198-1.115992-2.60198-2.499981z" opacity=".2"/><rect fill="#4f4f4f" height="52" rx="2.5" ry="2.6" transform="matrix(0 -1 -1 0 0 0)" width="40" x="-49" y="-58"/><path d="m-45-54h32v44h-32z" fill="#37b368" transform="matrix(0 -1 -1 0 0 0)"/><path d="m8.6015625 9c-1.4403889 0-2.6015625 1.115011-2.6015625 2.5v1c0-1.384989 1.1611736-2.5 2.6015625-2.5h46.7968755c1.439988 0 2.601562 1.115011 2.601562 2.5v-1c0-1.384989-1.161574-2.5-2.601562-2.5z" fill="#fff" opacity=".1"/><path d="m20.296 21.0003h16.404c1.3 0 1.3 1.2857 1.3 1.2857v15.429c0 1.285-1.3 1.285-1.3 1.285h-16.4s-1.3 0-1.3-1.2857v-15.428s0-1.286 1.3-1.286zm25.704 2v15l-8-8z" opacity=".2"/><path d="m20.296 20.0003h16.404c1.3 0 1.3 1.2857 1.3 1.2857v15.429c0 1.285-1.3 1.285-1.3 1.285h-16.4s-1.3 0-1.3-1.2857v-15.428s0-1.286 1.3-1.286zm25.704 2v15l-8-8z" fill="#fff"/></svg>

<svg xmlns="http://www.w3.org/2000/svg" width="64" height="64" version="1">
 <path style="opacity:0.2" d="m 16.000323,51.376036 0,1.999984 c 0,1.453989 1.190591,2.62398 2.66798,2.62398 l 26.663794,0 c 1.477989,0 2.66798,-1.169991 2.66798,-2.62398 l 0,-1.999984 c 0,1.453988 -1.189991,2.623979 -2.66798,2.623979 l -26.663794,0 c -1.477389,0 -2.66798,-1.169991 -2.66798,-2.623979 z"/>
 <rect style="fill:#8e8e8e" width="42" height="32" x="-55" y="-48" rx="2.626" ry="2.666" transform="matrix(0,-1,-1,0,0,0)"/>
 <path style="opacity:0.2" d="m 6.0004002,45.500081 0,1.999984 c 0,1.38399 1.1611911,2.499981 2.60158,2.499981 l 46.7956398,0 c 1.439989,0 2.60198,-1.115991 2.60198,-2.499981 l 0,-1.999984 c 0,1.383989 -1.161991,2.499981 -2.60198,2.499981 l -46.7956398,0 c -1.4407889,0 -2.60198,-1.115992 -2.60198,-2.499981 z"/>
 <rect style="fill:#4f4f4f" width="40" height="52" x="-49" y="-58" rx="2.5" ry="2.6" transform="matrix(0,-1,-1,0,0,0)"/>
 <rect style="fill:#37b368" width="32" height="44" x="-45" y="-54" rx="0" ry="0" transform="matrix(0,-1,-1,0,0,0)"/>
 <path style="opacity:0.1;fill:#ffffff" d="M 8.6015625 9 C 7.1611736 9 6 10.115011 6 11.5 L 6 12.5 C 6 11.115011 7.1611736 10 8.6015625 10 L 55.398438 10 C 56.838426 10 58 11.115011 58 12.5 L 58 11.5 C 58 10.115011 56.838426 9 55.398438 9 L 8.6015625 9 z"/>
 <path style="opacity:0.2" d="M 20.296,21.0003 H 36.7 c 1.3,0 1.3,1.2857 1.3,1.2857 V 37.715 C 38,39 36.7,39 36.7,39 H 20.3 c 0,0 -1.3,0 -1.3,-1.2857 v -15.428 c 0,0 0,-1.286 1.3,-1.286 z m 25.704,2 v 15 l -8,-8 z"/>
 <path style="fill:#ffffff" d="M 20.296,20.0003 H 36.7 c 1.3,0 1.3,1.2857 1.3,1.2857 V 36.715 C 38,38 36.7,38 36.7,38 H 20.3 c 0,0 -1.3,0 -1.3,-1.2857 v -15.428 c 0,0 0,-1.286 1.3,-1.286 z m 25.704,2 v 15 l -8,-8 z"/>
</svg>
